X:1
T:Angels from Their Home in Glory
T:Angels from Their Home in Glory
T:M. A. Rublee
T:Thomas S. Weddle, 1878
T:Public Domain Courtesy of the Cyber Hymnal™
C:M. A. Rublee
Z:Public Domain
Z:Courtesy of the Cyber Hymnal™
%%score ( 1 2 ) ( 3 4 )
L:1/8
Q:1/4=108
M:2/4
K:Bb
V:1 treble 
V:2 treble 
V:3 bass 
V:4 bass 
V:1
 B3 A | B2 F2 | [FB]2 [Fc]2 | [Fd]2 [DB] z | [Fc]2 [Fd]2 | [Fe]2 z2 | [EA]3 [EA] | [DB]2 z2 | %8
w: 1.~An- gels|from their|home in|glo- ry|Glad- ly|flew,|glad- ly|flew;|
w: 2.~With the|won- drous|star for|guid- ing,|Bright and|fair,|bright and|fair,|
w: 3.~May we|find whom|an- cient|sag- es|Once a-|dored,|once a-|dored?|
w: 4.~Pa- tient|Sim- eon,|old and|hoar- y,|Wait- ing|long,|wait- ing|long,|
w: 5.~Lo, to|us be-|fore our|seek- ing,|Christ ap-|pears,|Christ ap-|pears;|
w: 6.~May we,|while our|hearts are|ten- der,|All a-|gree,|all a-|gree,|
 [DF]2 ([B,D][EG]) | [DF]2 ([B,D][EG]) | (FB) ([DB][Fd]) | [Fd]2 [Fc]2 | [^Fd]3 [Fd] | %13
w: Flew to *|tell the *|joy- * ful *|sto- ry,|Christ is|
w: Wise men *|found on *|earth * a- *|bid- ing,|Christ, of|
w: All the *|Sav- ior’s *|love * en- *|gag- es,|Sur- est|
w: Found at *|last the *|Lord * of *|glo- ry,|Then be-|
w: Words of *|love and *|mer- * cy *|speak- ing,|Gives us|
w: Love and *|praise, O *|Lord, * to *|ren- der,|Thro’ our|
 [Gd]2 [Gc]2 | [FB]2 [FA]2 | [FB]4 | [Ec]3 [Ec] | [Fd]2 [DB]2 | [Fc]3 [Fc] | [Fd]2 [Ff]2 | %20
w: born to-|day for|you:|Ho- ly|an- gels,|ho- ly|an- gels,|
w: all things|King and|Heir;|Hap- py|wise men,|hap- py|wise men,|
w: guid- ance|to af-|ford;|Bless- èd|day star,|bless- èd|day star,|
w: fore the|won- dering|throng|Glad- ly|blessed Him,|glad- ly|blessed Him;|
w: hope, for-|bids our|fears;|And with|bless- ings,|and with|bless- ings,|
w: earth- ly|lives to|Thee?|Then to|glo- ry,|then to|glo- ry,|
 (fd) ([GB][EG]) | [DF]2 [DB]2 | [Gc]2 A2 | [DB]4 |] %24
w: We * would *|come and|wor- ship,|too!|
w: In * your *|wor- ship|we would|share.|
w: Lead * us *|on- ward|to the|Lord.|
w: Blessed * the *|Lord in|thank- ful|song.|
w: Fills * our *|hap- py,|youth- ful|years.|
w: Bring * us, *|Thy blest|face to|see.|
V:2
 B3 A | B2 F2 | x4 | x4 | x4 | x4 | x4 | x4 | x4 | x4 | D2 x2 | x4 | x4 | x4 | x4 | x4 | x4 | x4 | %18
 x4 | x4 | F2 x2 | x4 | x2 (FE) | x4 |] %24
V:3
 B,3 A, | B,2 F,2 | [D,B,]2 [F,A,]2 | B,2 [B,,B,] z | [F,A,]2 [F,B,]2 | [F,C]2 z2 | [F,C]3 [F,C] | %7
 [B,,B,]2 z2 | [B,,B,]2 [B,,B,]2 | [B,,B,]2 [B,,B,]2 | [B,,B,]2 [B,,B,]2 | [F,B,]2 [F,A,]2 | %12
 [D,A,]3 [D,A,] | [G,B,]2 [E,E]2 | [F,D]2 [F,C]2 | [B,D]4 | z4 | z4 | [F,A,]3 [F,A,] | %19
 B,2 [F,A,]2 | [B,,B,]2 [E,B,]2 | [B,,B,]2 [G,B,]2 | [E,E]2 [F,C]2 | [B,,B,]4 |] %24
V:4
 B,3 A, | B,2 F,2 | x4 | B,2 x2 | x4 | x4 | x4 | x4 | x4 | x4 | x4 | x4 | x4 | x4 | x4 | x4 | x4 | %17
 x4 | x4 | B,2 x2 | x4 | x4 | x4 | x4 |] %24

